X: 25516
T: Margaret's
R: waltz
M: 3/4
K: Gmajor
|:B2|D3 E GA|B4 B2|AG E2 G2|A4 B2|
D3 E GA|B3 c d2|B2 B2 A2|G4:|
Bc|d3 e fd|g4 g2|ed c2 e2|d4 BA|
G3 A Bc|d4 B2|AG E2 G2|A4 Bc|
d3 e fd|g2 f2 e2|d2 c2 B2|A4 B2|
D3 E GA|B3 c d2|B4 A2|G4||

